X: 20485
T: John Kelly's
R: reel
M: 4/4
K: Gmajor
|:"G"G3G GABG|"Am"AGEF GABc|"Bm"dz gd edBc|"C"d2ed {d}"D"BAAB|
"G" G2 GF GABG|"Am"AGEF GABc|"Bm"dz gd edBG|1 "D"A2 G2 "G"GEDE:|2 "D"A2 G2 "G"GABd||
|:"C"e3e edBc|"Bm"d3d dBAB|"Am"c2cd B2AG|"C"EAAG "D"AcBA|
"G"G3G GABG|"Am"AGEF GABc|"Bm"dz gd edBG|1 "D"A2 G2 "G"GABd:|2 "D"A2 G2 "G"GEDE||

